X:41
T:Goldy's
C:Brian Finnegan
S:The Ravishing Genius of Bones
N:Originally in Cdorian
Z:robin.beech@mcgill.ca
M:9/8
L:1/8
K:Ador
A2e ecd c2A | edc deg deg | dcA DEG G2B | DEG GAc d2e |
A2e ecd c2A | edc deg deg | dcA DEG G2B | DEG GAc A3 ::
A2.c z2A AGE | G2E- EGE G2E | DED DEG GEG | A3 ABc dBG |
A2.c z2A AGE | G2E- EGE G2E |1 DED DEG GEG | A3 Ade dcG :|2 ded dcA BGF | A3 AB/c/d e3 |]
